svgs/thin/arrow-up-square-triangle.svg

<svg xmlns="http://www.w3.org/2000/svg" viewBox="0 0 512 512"><!--! Font Awesome Pro 6.3.0 by @fontawesome - https://fontawesome.com License - https://fontawesome.com/license (Commercial License) Copyright 2023 Fonticons, Inc. --><path d="M476.1 438.9l-83.13-137.1c-5.564-9.188-15.25-13.78-24.94-13.78s-19.38 4.594-24.94 13.78l-83.25 137.1C248.9 457.1 262.6 480 284.9 480h166.3C473.4 480 487.1 457.1 476.1 438.9zM462.6 457.7C460.4 461.6 456.1 464 451.1 464h-166.3c-4.945 0-9.229-2.359-11.46-6.311c-1.119-1.982-2.588-5.99 .1367-10.51l83.26-137.1c3.316-5.477 8.973-6.068 11.25-6.068c2.279 0 7.936 .5918 11.26 6.076l83.11 137.1C465.2 451.7 463.7 455.7 462.6 457.7zM304 224l128-.0059c17.67 0 32-14.32 32-31.99V64c0-17.67-14.33-32-32-32h-128c-17.67 0-32 14.33-32 32v128C272 209.7 286.3 224 304 224zM288 64c0-8.822 7.178-16 16-16h128c8.822 0 16 7.178 16 16v128c0 8.822-7.178 16-16 16h-128c-8.822 0-16-7.178-16-16V64zM133.9 34.48c-3.062-3.312-8.75-3.312-11.81 0L34.09 130.5c-2.969 3.252-2.75 8.314 .5 11.32c3.25 3 8.314 2.781 11.31-.5L120 60.47V471.1C120 476.4 123.6 480 128 480s8-3.594 8-8.002V60.47l74.1 80.85c1.594 1.719 3.75 2.594 5.906 2.594c1.938 0 3.875-.6875 5.406-2.094c3.25-3.002 3.469-8.064 .5-11.32L133.9 34.48z"/></svg>

<svg xmlns="http://www.w3.org/2000/svg" viewBox="0 0 512 512"><!-- Font Awesome Pro 6.0.0-alpha2 by @fontawesome - https://fontawesome.com License - https://fontawesome.com/license (Commercial License) --><path d="M476.133 438.875L393.008 301.75C387.443 292.563 377.756 287.969 368.068 287.969S348.693 292.563 343.131 301.75L259.881 438.875C248.881 457.125 262.631 480 284.881 480H451.133C473.383 480 487.133 457.125 476.133 438.875ZM462.592 457.689C460.361 461.641 456.076 464 451.133 464H284.881C279.936 464 275.652 461.641 273.42 457.689C272.301 455.707 270.832 451.699 273.557 447.178L356.818 310.037C360.135 304.561 365.791 303.969 368.068 303.969C370.348 303.969 376.004 304.561 379.324 310.045L462.43 447.135C465.18 451.699 463.713 455.707 462.592 457.689ZM304.006 224H432.008C449.68 224 464.008 209.674 464.008 192V64C464.008 46.326 449.68 32 432.008 32H304.006C286.332 32 272.006 46.326 272.006 64V192C272.006 209.674 286.332 224 304.006 224ZM288.006 64C288.006 55.178 295.184 48 304.006 48H432.008C440.83 48 448.008 55.178 448.008 64V192C448.008 200.822 440.83 208 432.008 208H304.006C295.184 208 288.006 200.822 288.006 192V64ZM133.906 34.484C130.844 31.172 125.156 31.172 122.094 34.484L34.09 130.508C31.121 133.76 31.34 138.822 34.59 141.824C37.84 144.824 42.904 144.605 45.904 141.324L120 60.471V471.998C120 476.406 123.594 480 128 480S136 476.406 136 471.998V60.471L210.098 141.324C211.691 143.043 213.848 143.918 216.004 143.918C217.941 143.918 219.879 143.23 221.41 141.824C224.66 138.822 224.879 133.76 221.91 130.508L133.906 34.484Z"/></svg>
